48x48/apps/aptdaemon-update-cache.svg

<svg xmlns="http://www.w3.org/2000/svg" width="48" height="48" version="1">
 <path style="opacity:0.2;fill-rule:evenodd" d="m 25.452565,43.997161 c 3.443875,-0.0602 6.879189,-1.059538 9.891129,-2.988382 4.441754,-2.844498 7.317378,-7.391357 8.289745,-12.42425 0.489786,-0.371553 1.026694,-0.669798 1.400479,-1.205119 1.220197,-1.747522 1.350417,-4.759995 0.0117,-6.691633 a 4.9938513,5.0006696 0 0 0 -0.0039,-0.0059 l -1.410232,-2.027413 a 4.9938513,5.0006696 0 0 0 -0.0039,-0.0039 l -1.412184,-2.025425 a 4.9938513,5.0006696 0 0 0 -0.0039,-0.0059 c -1.342607,-1.920686 -3.348617,-2.619189 -5.106481,-2.619189 -1.757865,0 -3.76387,0.698462 -5.106483,2.61923 a 4.9938513,5.0006696 0 0 0 -0.0059,0.0078 l -1.410231,2.02546 -1.412182,2.025458 a 4.9938513,5.0006696 0 0 0 -0.0059,0.0098 c -1.337641,1.930095 -1.210235,4.939937 0.0078,6.687727 0.05201,0.07463 0.140434,0.09652 0.195053,0.167974 -0.385491,0.651397 -0.885773,1.239727 -1.554572,1.668026 -1.60357,1.026925 -3.593579,1.062789 -5.231316,0.09375 -1.647519,-0.976506 -3.884607,-1.259266 -5.674086,-0.68557 -1.789478,0.573694 -3.083632,1.757743 -3.903006,3.144637 -0.819376,1.386895 -1.233313,3.094811 -0.873837,4.941574 0.359476,1.846763 1.68355,3.674774 3.331502,4.650549 l 0,-0.002 c 3.077268,1.822217 6.546561,2.702845 9.990702,2.642646 z"/>
 <path style="fill:#ff9932;fill-rule:evenodd" d="m 25.452565,42.997111 c 3.443875,-0.0602 6.879189,-1.059538 9.891129,-2.988382 4.441754,-2.844498 7.317378,-7.391357 8.289745,-12.42425 0.489786,-0.371553 1.026694,-0.669798 1.400479,-1.205119 1.220197,-1.747522 1.350417,-4.759995 0.0117,-6.691633 a 4.9938513,5.0006696 0 0 0 -0.0039,-0.0059 l -1.410232,-2.027413 a 4.9938513,5.0006696 0 0 0 -0.0039,-0.0039 l -1.412184,-2.025425 a 4.9938513,5.0006696 0 0 0 -0.0039,-0.0059 C 40.868895,13.698503 38.862885,13 37.105021,13 c -1.757865,0 -3.76387,0.698462 -5.106483,2.61923 a 4.9938513,5.0006696 0 0 0 -0.0059,0.0078 l -1.410231,2.02546 -1.412182,2.025458 a 4.9938513,5.0006696 0 0 0 -0.0059,0.0098 c -1.337641,1.930095 -1.210235,4.939937 0.0078,6.687727 0.05201,0.07463 0.140434,0.09652 0.195053,0.167974 -0.385491,0.651397 -0.885773,1.239727 -1.554572,1.668026 -1.60357,1.026925 -3.593579,1.062789 -5.231316,0.09375 -1.647519,-0.976506 -3.884607,-1.259266 -5.674086,-0.68557 -1.789478,0.573694 -3.083632,1.757743 -3.903006,3.144637 -0.819376,1.386895 -1.233313,3.094811 -0.873837,4.941574 0.359476,1.846763 1.68355,3.674774 3.331502,4.650549 l 0,-0.002 c 3.077268,1.822217 6.546561,2.702845 9.990702,2.642646 z"/>
 <path style="opacity:0.2;fill-rule:evenodd" d="M 23.546875 6.0019531 C 20.103 6.0621485 16.66819 7.0633429 13.65625 8.9921875 C 9.2144965 11.836685 6.339554 16.383123 5.3671875 21.416016 C 4.8774016 21.787569 4.3405817 22.085773 3.9667969 22.621094 C 2.7466001 24.368616 2.6163641 27.380862 3.9550781 29.3125 A 4.9938513 5.0006696 0 0 0 3.9589844 29.318359 L 5.3691406 31.345703 A 4.9938513 5.0006696 0 0 0 5.3730469 31.349609 L 6.7851562 33.375 A 4.9938513 5.0006696 0 0 0 6.7890625 33.380859 C 8.1316724 35.301545 10.136667 36 11.894531 36 C 13.652396 36 15.65934 35.301627 17.001953 33.380859 A 4.9938513 5.0006696 0 0 0 17.007812 33.373047 L 18.417969 31.347656 L 19.830078 29.322266 A 4.9938513 5.0006696 0 0 0 19.835938 29.3125 C 21.173579 27.382405 21.04616 24.37279 19.828125 22.625 C 19.776115 22.55037 19.687432 22.528485 19.632812 22.457031 C 20.018303 21.805634 20.518701 21.217362 21.1875 20.789062 C 22.79107 19.762138 24.780232 19.726274 26.417969 20.695312 C 27.014584 21.048934 27.690588 21.308714 28.392578 21.472656 C 28.546758 20.829061 28.797138 20.216939 29.164062 19.6875 L 29.169922 19.677734 L 30.582031 17.652344 L 31.992188 15.626953 L 31.998047 15.619141 C 33.263348 13.808977 35.11615 13.093069 36.796875 13.015625 C 36.36458 11.265969 35.103769 9.5710149 33.539062 8.6445312 L 33.539062 8.6464844 C 30.461794 6.8242672 26.991016 5.941754 23.546875 6.0019531 z"/>
 <path style="fill:#ffda43;fill-rule:evenodd" d="M 23.547533,5.0028889 C 20.103658,5.0630843 16.668344,6.0624269 13.656404,7.9912715 9.2146505,10.835769 6.3390257,15.382628 5.3666592,20.415521 4.8768733,20.787074 4.3399649,21.085319 3.9661801,21.62064 2.7459833,23.368162 2.6157628,26.380635 3.9544768,28.312273 a 4.9938513,5.0006696 0 0 0 0.0039,0.0059 l 1.4102319,2.027413 a 4.9938513,5.0006696 0 0 0 0.0039,0.0039 l 1.4121845,2.025425 a 4.9938513,5.0006696 0 0 0 0.0039,0.0059 C 8.1312031,34.301497 10.137213,35 11.895077,35 c 1.757865,0 3.76387,-0.698462 5.106483,-2.61923 a 4.9938513,5.0006696 0 0 0 0.0059,-0.0078 l 1.410231,-2.02546 1.412182,-2.025458 a 4.9938513,5.0006696 0 0 0 0.0059,-0.0098 c 1.337641,-1.930095 1.210235,-4.939937 -0.0078,-6.687727 -0.05201,-0.07463 -0.140434,-0.09652 -0.195053,-0.167974 0.385491,-0.651397 0.885773,-1.239727 1.554572,-1.668026 1.60357,-1.026925 3.593579,-1.062789 5.231316,-0.09375 1.647519,0.976506 3.884607,1.259266 5.674086,0.68557 1.789478,-0.573694 3.083632,-1.757743 3.903006,-3.144637 0.819376,-1.386895 1.233313,-3.094811 0.873837,-4.941574 -0.359476,-1.846763 -1.68355,-3.6747739 -3.331502,-4.6505486 l 0,0.00195 C 30.460967,5.8233182 26.991674,4.9426898 23.547533,5.0028889 Z"/>
 <path style="opacity:0.2;fill:#f4f4f7;fill-rule:evenodd" d="M 23.546875 5.0019531 C 20.103 5.0621485 16.66819 6.0633429 13.65625 7.9921875 C 9.2144965 10.836685 6.339554 15.383123 5.3671875 20.416016 C 4.8774016 20.787569 4.3405817 21.085773 3.9667969 21.621094 C 3.2552271 22.640178 2.9282704 24.087723 3.0332031 25.501953 C 3.1109033 24.429462 3.4235408 23.399126 3.9667969 22.621094 C 4.3405817 22.085773 4.8774016 21.787569 5.3671875 21.416016 C 6.339554 16.383123 9.2144965 11.836685 13.65625 8.9921875 C 16.66819 7.0633429 20.103 6.0621485 23.546875 6.0019531 C 26.991016 5.941754 30.461794 6.8242672 33.539062 8.6464844 L 33.539062 8.6445312 C 35.187015 9.6203059 36.509665 11.448159 36.869141 13.294922 C 36.924034 13.576931 36.956429 13.854021 36.976562 14.128906 C 37.019645 13.537586 36.991967 12.925929 36.869141 12.294922 C 36.509665 10.448159 35.187015 8.6203059 33.539062 7.6445312 L 33.539062 7.6464844 C 30.461794 5.8242672 26.991016 4.941754 23.546875 5.0019531 z M 19.996094 21.917969 C 19.866142 22.091332 19.74282 22.271142 19.632812 22.457031 C 19.687432 22.528485 19.776115 22.55037 19.828125 22.625 C 20.369449 23.40176 20.682134 24.430259 20.759766 25.5 C 20.855119 24.213616 20.582209 22.911663 19.996094 21.917969 z"/>
 <path style="opacity:0.2;fill-rule:evenodd" d="m 23.755859,11.005672 c -2.543663,0.0444 -5.075601,0.77936 -7.298828,2.201172 -4.045715,2.587343 -6.447338,7.05537 -6.447265,11.794922 l -0.8320316,0 A 1.1763831,0.97489852 0 0 0 8.15625,26.462704 l 1.4121094,2.027343 1.4140626,2.025391 a 1.1763831,0.97489852 0 0 0 2.035156,0 l 1.41211,-2.025391 1.414062,-2.027343 a 1.1763831,0.97489852 0 0 0 -1.019531,-1.460938 l -0.806641,0 c -0.0013,-3.388875 1.698535,-6.572261 4.59375,-8.423828 3.182027,-2.034991 7.227407,-2.106294 10.478516,-0.183594 a 2.0004084,2.0004084 0 1 0 2.037109,-3.443359 c -2.271492,-1.343357 -4.827431,-1.989712 -7.371094,-1.945313 z"/>
 <path style="fill:#17191e;fill-rule:evenodd" d="m 23.755859,10.003906 c -2.543663,0.0444 -5.075601,0.77936 -7.298828,2.201172 C 12.411316,14.792421 10.009693,19.260448 10.009766,24 L 9.1777344,24 A 1.1763831,0.97489852 0 0 0 8.15625,25.460938 l 1.4121094,2.027343 1.4140626,2.025391 a 1.1763831,0.97489852 0 0 0 2.035156,0 l 1.41211,-2.025391 1.414062,-2.027343 A 1.1763831,0.97489852 0 0 0 14.824219,24 l -0.806641,0 c -0.0013,-3.388875 1.698535,-6.572261 4.59375,-8.423828 3.182027,-2.034991 7.227407,-2.106294 10.478516,-0.183594 a 2.0004084,2.0004084 0 1 0 2.037109,-3.443359 C 28.855461,10.605862 26.299522,9.9595067 23.755859,10.003906 Z"/>
 <path style="fill:#ff9932;fill-rule:evenodd" d="m 45.995088,23.264592 c 0.04821,-1.264318 -0.250283,-2.568006 -0.94947,-3.576865 l -0.0039,-0.0059 -1.410232,-2.027413 -0.0039,-0.0039 -1.412184,-2.025425 -0.0039,-0.0059 C 40.868895,13.698503 38.862885,13 37.105021,13 c -1.757865,0 -3.76387,0.698462 -5.106483,2.61923 l -0.0059,0.0078 -1.410231,2.02546 -1.412182,2.025458 -0.0059,0.0098 c -0.430995,0.621887 -0.709895,1.35587 -0.849223,2.123615 z"/>
 <path style="opacity:0.2;fill-rule:evenodd" d="m 25.244239,38.99786 c 2.543663,-0.0444 5.075601,-0.77936 7.298828,-2.201172 4.045715,-2.587343 6.447338,-7.05537 6.447265,-11.794922 l 0.832032,0 a 1.1763831,0.97489852 0 0 0 1.021484,-1.460938 l -1.412109,-2.027343 -1.414063,-2.025391 a 1.1763831,0.97489852 0 0 0 -2.035156,0 l -1.41211,2.025391 -1.414062,2.027343 a 1.1763831,0.97489852 0 0 0 1.019531,1.460938 l 0.806641,0 c 0.0013,3.388875 -1.698535,6.572261 -4.59375,8.423828 -3.182027,2.034991 -7.227407,2.106294 -10.478516,0.183594 a 2.0004084,2.0004084 0 1 0 -2.037109,3.443359 c 2.271492,1.343357 4.827431,1.989712 7.371094,1.945313 z"/>
 <path style="fill:#17191e;fill-rule:evenodd" d="m 25.244239,37.996094 c 2.543663,-0.0444 5.075601,-0.77936 7.298828,-2.201172 C 36.588782,33.207579 38.990405,28.739552 38.990332,24 l 0.832032,0 a 1.1763831,0.97489852 0 0 0 1.021484,-1.460938 l -1.412109,-2.027343 -1.414063,-2.025391 a 1.1763831,0.97489852 0 0 0 -2.035156,0 l -1.41211,2.025391 -1.414062,2.027343 A 1.1763831,0.97489852 0 0 0 34.175879,24 l 0.806641,0 c 0.0013,3.388875 -1.698535,6.572261 -4.59375,8.423828 -3.182027,2.034991 -7.227407,2.106294 -10.478516,0.183594 a 2.0004084,2.0004084 0 1 0 -2.037109,3.443359 c 2.271492,1.343357 4.827431,1.989712 7.371094,1.945313 z"/>
</svg>

<svg xmlns="http://www.w3.org/2000/svg" width="48" height="48" version="1"><path style="opacity:.2;fill-rule:evenodd" d="M25.453 43.997c3.443-.06 6.879-1.06 9.89-2.988 4.442-2.845 7.318-7.392 8.29-12.424.49-.372 1.027-.67 1.4-1.206 1.221-1.747 1.351-4.76.013-6.691a4.994 5 0 0 0-.004-.006l-1.41-2.028a4.994 5 0 0 0-.004-.003l-1.413-2.026a4.994 5 0 0 0-.003-.006C40.869 14.7 38.862 14 37.105 14c-1.758 0-3.764.699-5.106 2.62a4.994 5 0 0 0-.006.007l-1.41 2.026-1.413 2.025a4.994 5 0 0 0-.006.01c-1.337 1.93-1.21 4.94.008 6.688.052.074.14.096.195.167-.385.652-.886 1.24-1.554 1.669a4.945 4.945 0 0 1-5.232.093c-1.647-.976-3.884-1.259-5.674-.685-1.79.573-3.083 1.757-3.903 3.144-.82 1.387-1.233 3.095-.874 4.942.36 1.847 1.684 3.675 3.332 4.65v-.002a18.96 18.96 0 0 0 9.99 2.643z"/><path style="fill:#ff9932;fill-rule:evenodd" d="M25.453 42.997c3.443-.06 6.879-1.06 9.89-2.988 4.442-2.845 7.318-7.392 8.29-12.425.49-.371 1.027-.67 1.4-1.205 1.221-1.747 1.351-4.76.013-6.691a4.994 5 0 0 0-.004-.006l-1.41-2.028a4.994 5 0 0 0-.004-.003l-1.413-2.026a4.994 5 0 0 0-.003-.006C40.869 13.7 38.862 13 37.105 13c-1.758 0-3.764.698-5.106 2.62a4.994 5 0 0 0-.006.007l-1.41 2.025-1.413 2.026a4.994 5 0 0 0-.006.01c-1.337 1.93-1.21 4.94.008 6.687.052.075.14.097.195.168-.385.652-.886 1.24-1.554 1.668a4.945 4.945 0 0 1-5.232.094c-1.647-.976-3.884-1.259-5.674-.685-1.79.573-3.083 1.757-3.903 3.144-.82 1.387-1.233 3.095-.874 4.942.36 1.847 1.684 3.675 3.332 4.65v-.002a18.96 18.96 0 0 0 9.99 2.643z"/><path style="opacity:.2;fill-rule:evenodd" d="M23.547 6.002a18.954 18.954 0 0 0-9.89 2.99c-4.443 2.845-7.317 7.391-8.29 12.424-.49.372-1.026.67-1.4 1.205-1.22 1.748-1.35 4.76-.012 6.692a4.994 5 0 0 0 .004.005l1.41 2.028a4.994 5 0 0 0 .004.004l1.412 2.025a4.994 5 0 0 0 .004.006C8.132 35.3 10.137 36 11.895 36c1.757 0 3.764-.698 5.107-2.62a4.994 5 0 0 0 .006-.007l1.41-2.025 1.412-2.026a4.994 5 0 0 0 .006-.01c1.338-1.93 1.21-4.94-.008-6.687-.052-.075-.14-.097-.195-.168.385-.651.886-1.24 1.555-1.668a4.944 4.944 0 0 1 5.23-.094 7.018 7.018 0 0 0 1.975.778 5.285 5.285 0 0 1 .771-1.785l.006-.01 1.412-2.026 1.41-2.025.006-.008c1.265-1.81 3.118-2.526 4.799-2.603-.432-1.75-1.693-3.445-3.258-4.371v.001a18.967 18.967 0 0 0-9.992-2.644z"/><path style="fill:#ffda43;fill-rule:evenodd" d="M23.548 5.003c-3.444.06-6.88 1.06-9.892 2.988-4.441 2.845-7.317 7.392-8.29 12.425-.49.371-1.026.67-1.4 1.205-1.22 1.747-1.35 4.76-.012 6.691a4.994 5 0 0 0 .004.006l1.41 2.028a4.994 5 0 0 0 .005.003l1.412 2.026a4.994 5 0 0 0 .004.006C8.13 34.3 10.137 35 11.895 35s3.764-.698 5.107-2.62a4.994 5 0 0 0 .005-.007l1.41-2.025 1.413-2.026a4.994 5 0 0 0 .006-.01c1.337-1.93 1.21-4.94-.008-6.687-.052-.075-.14-.097-.195-.168.385-.652.886-1.24 1.554-1.668a4.945 4.945 0 0 1 5.232-.094c1.647.976 3.884 1.259 5.674.685 1.79-.573 3.084-1.757 3.903-3.144.82-1.387 1.233-3.095.874-4.942-.36-1.847-1.684-3.675-3.332-4.65v.002a18.96 18.96 0 0 0-9.99-2.643z"/><path style="opacity:.2;fill:#f4f4f7;fill-rule:evenodd" d="M23.547 5.002a18.954 18.954 0 0 0-9.89 2.99c-4.443 2.845-7.317 7.391-8.29 12.424-.49.372-1.026.67-1.4 1.205-.712 1.02-1.039 2.467-.934 3.881.078-1.073.39-2.103.934-2.88.374-.536.91-.834 1.4-1.206.973-5.033 3.847-9.58 8.29-12.424a18.954 18.954 0 0 1 19.882-.346v-.001c1.648.975 2.97 2.803 3.33 4.65.055.282.087.559.108.834a6.917 6.917 0 0 0-.108-1.834c-.36-1.847-1.682-3.675-3.33-4.65v.001a18.967 18.967 0 0 0-9.992-2.644zm-3.55 16.916c-.13.173-.254.353-.364.539.054.071.143.093.195.168.541.777.854 1.805.932 2.875.095-1.286-.178-2.588-.764-3.582z"/><path style="opacity:.2;fill-rule:evenodd" d="M23.756 11.006a13.99 13.99 0 0 0-7.299 2.2 14.003 14.003 0 0 0-6.447 11.796h-.832a1.176.975 0 0 0-1.022 1.46l1.412 2.028 1.414 2.025a1.176.975 0 0 0 2.036 0l1.412-2.025 1.414-2.027a1.176.975 0 0 0-1.02-1.461h-.806a9.974 9.974 0 0 1 4.593-8.424 9.991 9.991 0 0 1 10.479-.184 2 2 0 1 0 2.037-3.443 13.99 13.99 0 0 0-7.371-1.945z"/><path style="fill:#17191e;fill-rule:evenodd" d="M23.756 10.004a13.99 13.99 0 0 0-7.299 2.201A14.003 14.003 0 0 0 10.01 24h-.832a1.176.975 0 0 0-1.022 1.46l1.412 2.028 1.414 2.026a1.176.975 0 0 0 2.036 0l1.412-2.026 1.414-2.027A1.176.975 0 0 0 14.824 24h-.806a9.974 9.974 0 0 1 4.593-8.424 9.991 9.991 0 0 1 10.479-.183 2 2 0 1 0 2.037-3.444 13.99 13.99 0 0 0-7.371-1.945z"/><path style="fill:#ff9932;fill-rule:evenodd" d="M45.995 23.265c.048-1.265-.25-2.568-.95-3.577l-.003-.006-1.41-2.028-.004-.003-1.413-2.026-.003-.006C40.869 13.7 38.862 13 37.105 13c-1.758 0-3.764.698-5.106 2.62l-.006.007-1.41 2.025-1.413 2.026-.006.01c-.43.622-.71 1.356-.849 2.123z"/><path style="opacity:.2;fill-rule:evenodd" d="M25.244 38.998a13.99 13.99 0 0 0 7.3-2.201 14.003 14.003 0 0 0 6.446-11.795h.832a1.176.975 0 0 0 1.022-1.461l-1.412-2.028-1.414-2.025a1.176.975 0 0 0-2.035 0l-1.413 2.025-1.414 2.028a1.176.975 0 0 0 1.02 1.46h.807a9.974 9.974 0 0 1-4.594 8.425 9.991 9.991 0 0 1-10.479.183 2 2 0 1 0-2.037 3.444 13.99 13.99 0 0 0 7.371 1.945z"/><path style="fill:#17191e;fill-rule:evenodd" d="M25.244 37.996a13.99 13.99 0 0 0 7.3-2.201A14.003 14.003 0 0 0 38.99 24h.832a1.176.975 0 0 0 1.022-1.46l-1.412-2.028-1.414-2.026a1.176.975 0 0 0-2.035 0l-1.413 2.026-1.414 2.027A1.176.975 0 0 0 34.176 24h.807a9.974 9.974 0 0 1-4.594 8.424 9.991 9.991 0 0 1-10.479.183 2 2 0 1 0-2.037 3.444 13.99 13.99 0 0 0 7.371 1.945z"/></svg>
